packages/tokens/icons/integrity2/size16Px.svg

<svg viewBox="0 0 16 16" fill="none" xmlns="http://www.w3.org/2000/svg" width="1em" height="1em"><path d="M5 14.5H11M8 1.5V14.5" stroke="currentColor" stroke-linecap="round"/><path d="M14.3631 7.81831C14.024 8.79781 13.0934 9.5 12 9.5C10.9066 9.5 9.97598 8.79781 9.63686 7.81831C9.61238 7.74762 9.62481 7.68981 9.67872 7.63C9.74166 7.56017 9.85829 7.5 10 7.5H14C14.1417 7.5 14.2583 7.56017 14.3213 7.63C14.3752 7.68981 14.3876 7.74762 14.3631 7.81831Z" stroke="currentColor" stroke-linejoin="round"/><path d="M6.36314 9.81831C6.02402 10.7978 5.09337 11.5 4 11.5C2.90663 11.5 1.97598 10.7978 1.63686 9.81831C1.61238 9.74762 1.62481 9.68981 1.67872 9.63C1.74166 9.56017 1.85829 9.5 2 9.5H6C6.14171 9.5 6.25834 9.56017 6.32128 9.63C6.37519 9.68981 6.38762 9.74762 6.36314 9.81831Z" stroke="currentColor" stroke-linejoin="round"/><path d="M4 5L4.46424 4.8143C4.38831 4.62448 4.20445 4.5 4 4.5C3.79555 4.5 3.61169 4.62448 3.53576 4.8143L4 5ZM5.53576 10.1857C5.63832 10.4421 5.9293 10.5668 6.1857 10.4642C6.44209 10.3617 6.56679 10.0707 6.46424 9.8143L5.53576 10.1857ZM2.46424 10.1857L4.46424 5.1857L3.53576 4.8143L1.53576 9.8143L2.46424 10.1857ZM3.53576 5.1857L5.53576 10.1857L6.46424 9.8143L4.46424 4.8143L3.53576 5.1857Z" fill="currentColor"/><path d="M12 3L12.4642 2.8143C12.3883 2.62448 12.2045 2.5 12 2.5C11.7955 2.5 11.6117 2.62448 11.5358 2.8143L12 3ZM13.5358 8.1857C13.6383 8.44209 13.9293 8.5668 14.1857 8.46424C14.4421 8.36168 14.5668 8.0707 14.4642 7.8143L13.5358 8.1857ZM10.4642 8.1857L12.4642 3.1857L11.5358 2.8143L9.53576 7.8143L10.4642 8.1857ZM11.5358 3.1857L13.5358 8.1857L14.4642 7.8143L12.4642 2.8143L11.5358 3.1857Z" fill="currentColor"/><path d="M2 5.00049L13.5911 1.89466" stroke="currentColor" stroke-linecap="round"/></svg>

<svg xmlns="http://www.w3.org/2000/svg" fill="none" viewBox="0 0 16 16" width="1em" height="1em"><path stroke="currentColor" stroke-linecap="round" d="M5 14.5h6m-3-13v13"/><path stroke="currentColor" stroke-linejoin="round" d="M14.363 7.818a2.501 2.501 0 0 1-4.726 0c-.025-.07-.012-.128.042-.188.063-.07.18-.13.321-.13h4c.142 0 .258.06.321.13.054.06.067.118.042.188Zm-8 2a2.501 2.501 0 0 1-4.726 0c-.025-.07-.012-.128.042-.188.063-.07.18-.13.321-.13h4c.142 0 .258.06.321.13.054.06.067.118.042.188Z"/><path fill="currentColor" d="m4 5 .464-.186a.5.5 0 0 0-.928 0L4 5Zm1.536 5.186a.5.5 0 1 0 .928-.372l-.928.372Zm-3.072 0 2-5-.928-.372-2 5 .928.372Zm1.072-5 2 5 .928-.372-2-5-.928.372ZM12 3l.464-.186a.5.5 0 0 0-.928 0L12 3Zm1.536 5.186a.5.5 0 1 0 .928-.372l-.928.372Zm-3.072 0 2-5-.928-.372-2 5 .928.372Zm1.072-5 2 5 .928-.372-2-5-.928.372Z"/><path stroke="currentColor" stroke-linecap="round" d="m2 5 11.591-3.105"/></svg>
